X:1
T:The Roll Call in Heaven
T:The Roll Call in Heaven
T:Edward S. Fogg
T:Hugh Mulholland, 1896
T:Public Domain Courtesy of the Cyber Hymnal™
T:Public Domain Courtesy of the Cyber Hymnal™
C:Edward S. Fogg
Z:Public Domain
Z:Courtesy of the Cyber Hymnal™
%%score ( 1 2 ) ( 3 4 )
L:1/8
Q:1/4=90
M:4/4
K:G
V:1 treble 
V:2 treble 
V:3 bass 
V:4 bass 
V:1
 [DG][DA] | [GB]>[Gc] [GB]>[DA] [DG]>[DB] [DA]>[DG] | [CE]>[EG] [DF]>[CE] [B,D]2 [DG][DA] | %3
w: 1.~When the|mes- sage from the Lord shall come, And|work on earth is o’er, And the|
w: 2.~There no|night or dark- ness e’er shall come— Our|Mas- ter lights the shore— With the|
w: 3.~In the|vine- yard of our Mas- ter Let us|la- bor with our might, Let us|
w: 4.~When we|reach the glor- ious prom- ised land, To|dwell for- ev- er- more, Love and|
 [GB][Ac][^A^c][Bd] [DG][DG] [DF]>[DG] | [FA]6 [DG][DA] | [GB]>[Gc] [GB]>[DA] [DG]>[DB] [DA]>[DG] | %6
w: morn- ing breaks in Hea- ven bright and|fair, When the|trum- pet from the clouds shall sound, We’ll|
w: an- gels we the harps and songs will|share, And we’ll|dwell there in the man- sions That our|
w: tell the love of Je- sus ev- ery-|where, For our|work will soon be o- ver, And we’ll|
w: sun- shine fill- ing all with beau- ty|rare, Where the|streets are paved with pre- cious gold A-|
 [CE]>[EG] [DF]>[CE] [B,D]2 [DG][DA] | [GB][Ac][^A^c][Bd] [GB]2 [F=A]>[FB] | G6 || %9
w: ga- ther on that shore— At the|call- ing of the roll I’ll be|there.|
w: Mas- ter has in store— At the|call- ing of the roll I’ll be|there.|
w: stand in Je- sus’ sight— At the|call- ing of the roll I’ll be|there.|
w: long the heav’n- ly shore— At the|call- ing of the roll I’ll be|there.|
"^Refrain" [GB][Ac] | [Bd]4- [Bd]>[GB] [FA][GB] | [Ac]6 [FA][GB] | [Ac]4- [Ac]>[ce] [Bd][Ac] | %13
w: ||||
w: At the|call- * ing of the|roll, At the|call- * ing of the|
w: ||||
w: ||||
 [GB]6 [GB][Ac] | [Bd]4- [Bd]>[GB] [Ac][Bd] | [ce]6 [ce][ce] | %16
w: |||
w: roll, At the|call- * ing of the|roll, At the|
w: |||
w: |||
 [Bd][ce][Bd][Ac] [GB][Fc] [GB]>[FA] | G6 |] %18
w: ||
w: call- ing of the roll I’ll be there.||
w: ||
w: ||
V:2
 x2 | x8 | x8 | x8 | x8 | x8 | x8 | x8 | G6 || x2 | x8 | x8 | x8 | x8 | x8 | x8 | x8 | G6 |] %18
V:3
 [G,B,][G,C] | [G,D]>[G,E] [G,D]>[G,C] [G,B,]>[G,B,] [G,C]>[G,B,] | %2
w: ~ ~|~ ~ ~ ~ ~ ~ ~ ~|
 [C,G,]>[C,C] [C,C]>[C,G,] G,2 [G,B,][G,C] | [G,D][G,D][G,D][G,D] [G,B,][G,B,] [A,C]>[G,B,] | %4
w: ~ ~ ~ ~ ~ ~ ~|~ ~ ~ ~ ~ ~ ~ ~|
 [D,D]6 [G,B,][G,C] | [G,D]>[G,E] [G,D]>[G,C] [G,B,]>[G,B,] [G,C]>[G,B,] | %6
w: ~ ~ ~|~ ~ ~ ~ ~ ~ ~ ~|
 [C,G,]>[C,C] [C,C]>[C,G,] G,2 [G,B,][G,C] | [G,D][G,D][G,D][G,D] [D,D]2 [D,C]>[D,D] | [G,B,]6 || %9
w: ~ ~ ~ ~ ~ ~ ~|~ ~ ~ ~ ~ ~ ~|~|
 [G,D][G,D] | [G,D]>[G,D] [G,D]>[G,D] [G,D]2 [A,D]>[G,D] | [D,D]2 [D,F,]>[D,A,] [D,D]2 [D,D][D,D] | %12
w: ~ ~|call- ing of the roll I’ll be|there, I’ll be there, ~ ~|
 [D,D]>[D,D] [D,D]>[D,D] [D,D]2 [E,D][F,D] | [G,D]2 [G,B,]>[G,C] [G,D]2 [G,D][G,D] | %14
w: call- ing of the roll I’ll be|there, I’ll be there, ~ ~|
 [G,D]>[G,D] [G,D]>[G,D] [G,D]2 [G,D]>[G,D] | [C,C]2 [C,G,]>[C,G,] [C,G,]2 [C,G,][C,G,] | %16
w: call- ing of the roll I’ll be|there, I’ll be there, * *|
 [D,G,][D,F,][D,G,][D,D] [D,D][D,D] [D,D]>[D,C] | [G,B,]6 |] %18
w: ||
V:4
 x2 | x8 | x4 G,2 x2 | x8 | x8 | x8 | x4 G,2 x2 | x8 | x6 || x2 | x8 | x8 | x8 | x8 | x8 | x8 | %16
 x8 | x6 |] %18

